public/assets/icons/social/tg.svg

<svg width="37" height="35" viewBox="0 0 37 35" fill="none" xmlns="http://www.w3.org/2000/svg">
<g opacity="0.8">
<circle cx="18.6934" cy="17.5" r="10.9375" fill="#020F59"/>
<path d="M16.1873 19.0541L15.9701 22.0291C16.2808 22.0291 16.4153 21.8991 16.5766 21.743L18.033 20.3871L21.0507 22.5401C21.6042 22.8406 21.9941 22.6823 22.1434 22.044L24.1242 13.0017L24.1248 13.0011C24.3003 12.2041 23.8289 11.8924 23.2897 12.0879L11.6464 16.4307C10.8518 16.7311 10.8638 17.1627 11.5114 17.3582L14.4881 18.2602L21.4024 14.0454C21.7278 13.8355 22.0236 13.9516 21.7803 14.1615L16.1873 19.0541Z" fill="white"/>
</g>
</svg>

<svg xmlns="http://www.w3.org/2000/svg" width="37" height="35" fill="none"><g opacity=".8"><circle cx="18.693" cy="17.5" r="10.938" fill="#020F59"/><path fill="#fff" d="m16.187 19.054-.217 2.975c.31 0 .445-.13.607-.286l1.456-1.356 3.018 2.153c.553.3.943.142 1.092-.496l1.981-9.042c.176-.798-.295-1.11-.834-.914L11.646 16.43c-.794.3-.782.732-.135.927l2.977.902 6.914-4.215c.326-.21.622-.093.378.117l-5.593 4.892Z"/></g></svg>
